!!!OTL: DER STURM BRACH LOS ES ZUCKTEN RINGS DIE BLITZE
!!!ARE: Europa, Mitteleuropa, Deutschland
!!!SCT: B0100
!!!YEM: Copyright 1995, estate of Helmut Schaffrath.
**kern
*ICvox
*Ivox
!! Mixed meters:  4/4; 3/4
*M4/4
*k[f#]
*G:
{8d
8e
8f#
=1
4.g
8f#
8e
8d
8c
8B
=2
4e
4d
8r}
{8b
8b
8b
=3
8b
8a
8cc
8a
4g
4f#
=4
2g
8r}
{8d
8g
8b
=5
4.a
8f#
8.g
16f#
8g
8e
=6
8f#
8g
4.a}
{8d
8a
8dd
=7
8cc#
8b
8g
8e
4d
8f#
8e
=8
2d
2r}
=9
*M3/4
{4.b
8a
4b
=10
4.g
8a
4b
=11
4.cc
8b
4cc
=12
2a
4r}
=13
{4dd
4dd
4dd
=14
4.dd
8cc
4b
=15
4a
4g
4a
=16
2g
4r}
=17
{4.b
8a
4b
=18
4.g
8a
4b
=19
4.cc
8b
4cc
=20
2a
4r}
=21
{4dd
4dd
4dd
=22
4.dd
8cc
4b
=23
4a
4g
4a
=24
2g
4r}
==
!!!AGN: Helden -, Ehren -, Gedaechtnis -, Kriegs - Lied
!!!ONB: ESAC (Essen Associative Code) Database: BOEHME
!!!AMT: irregular
!!!AIN: vox
!!!EED: Helmut Schaffrath
!!!EEV: 1.0
*-
